svg/24/security.svg

<svg width="24" height="24" viewBox="0 0 24 24" fill="currentColor" xmlns="http://www.w3.org/2000/svg"><path d="M15.5303 10.2805C15.8232 9.98761 15.8232 9.51273 15.5303 9.21984C15.2374 8.92695 14.7626 8.92695 14.4697 9.21984L11 12.6895L9.53034 11.2198C9.23745 10.9269 8.76257 10.9269 8.46968 11.2198C8.17679 11.5127 8.17679 11.9876 8.46968 12.2805L10.4697 14.2805C10.7626 14.5734 11.2374 14.5734 11.5303 14.2805L15.5303 10.2805Z"/><path fill-rule="evenodd" clip-rule="evenodd" d="M4.02872 6.42866L11.0287 2.53977C11.6328 2.20419 12.3673 2.20419 12.9713 2.53977L19.9713 6.42866C20.6062 6.7814 21.0086 7.45398 20.9648 8.17899C20.469 16.3819 14.8743 20.3732 12.7827 21.5864C12.2932 21.8704 11.7069 21.8704 11.2173 21.5864C9.12574 20.3732 3.53104 16.3819 3.03524 8.17899C2.99141 7.45398 3.39379 6.7814 4.02872 6.42866ZM4.75719 7.7399L11.7572 3.85101C11.9082 3.76711 12.0918 3.76711 12.2428 3.85101L19.2428 7.7399C19.4172 7.83678 19.4736 7.98847 19.4675 8.08849C19.0163 15.5542 13.941 19.1804 12.0301 20.2889C12.0124 20.2992 12.0028 20.2994 12 20.2994C11.9973 20.2994 11.9877 20.2992 11.97 20.2889C10.059 19.1804 4.98375 15.5542 4.5325 8.08849C4.52646 7.98847 4.5828 7.83678 4.75719 7.7399Z"/></svg>

<svg xmlns="http://www.w3.org/2000/svg" width="24" height="24" fill="currentColor" viewBox="0 0 24 24">
  <path d="M15.53 10.28a.75.75 0 0 0-1.06-1.06L11 12.69l-1.47-1.47a.75.75 0 1 0-1.06 1.06l2 2a.75.75 0 0 0 1.06 0l4-4Z"/>
  <path fill-rule="evenodd" d="m4.029 6.429 7-3.89a2 2 0 0 1 1.942 0l7 3.89c.635.352 1.038 1.025.994 1.75-.496 8.203-6.09 12.194-8.182 13.407a1.545 1.545 0 0 1-1.566 0C9.126 20.373 3.531 16.382 3.035 8.18c-.044-.725.359-1.398.994-1.75Zm.728 1.31 7-3.888a.5.5 0 0 1 .486 0l7 3.889c.174.097.23.248.225.348-.452 7.466-5.527 11.092-7.438 12.2-.018.011-.027.011-.03.011-.003 0-.012 0-.03-.01-1.911-1.109-6.986-4.735-7.438-12.2-.006-.1.05-.252.225-.35Z" clip-rule="evenodd"/>
</svg>
